X:1
T:Kateglidden, 76.76 D
T:Kateglidden, 76.76 D
T:Anton Rubinstein (1829-1894)
T:Public Domain Courtesy of the Cyber Hymnal™
C:Anton Rubinstein (1829-1894)
Z:Public Domain
Z:Courtesy of the Cyber Hymnal™
%%score ( 1 2 ) ( 3 4 )
L:1/8
Q:1/4=160
M:3/4
K:E
V:1 treble 
V:2 treble 
V:3 bass 
V:4 bass 
V:1
 [B,G]2 | [B,G]4 [B,G]2 | [B,G]4 [EB]2 | [DB]6 | [B,D]2 z2 [B,D]2 | [B,E]4 [B,E]2 | [B,F]4 [B,F]2 | %7
 [B,G]6- | [B,G]2 z2 [B,B]2 | [B,B]4 [EB]2 | [EB]4 [Ee]2 | [CEe]6 | [EF]4 [EF]2 | [CG]4 [CF]2 | %14
 [CG]4 [CF]2 | [DB]6- | [DB]2 z2 [DB]2 | [F=c]4 [Fc]2 | [F=c]4 (B^A) | [=DB]6 | [=D=G]2 z2 [DG]2 | %21
 [=CA]4 [CA]2 | [=CA]4 (=GA) | [B,=DB]6- | [B,DB]2 z4 | [DB]4 [DA][DA] | [DA]4 [DG][DF] | (e4 d2) | %28
 [Ec]4 [EB]2 | [EG]4 [EB]2 | [DB]4 [A,D]2 | [B,E]4 |] %32
V:2
 x2 | x6 | x6 | x6 | x6 | x6 | x6 | x6 | x6 | x6 | x6 | x6 | x6 | x6 | x6 | x6 | x6 | x6 | x4 F2 | %19
 x6 | x6 | x6 | x4 =C2 | x6 | x6 | x6 | x6 | E6 | x6 | x6 | x6 | x4 |] %32
V:3
 [E,G,]2 | [E,G,]4 [E,G,]2 | [B,,E,]4 [B,,G,]2 | [B,,A,]6 | [B,,A,]2 z2 [B,,A,]2 | %5
 [G,,G,]4 [B,,G,]2 | [D,A,]4 [B,,A,]2 | [E,G,]6- | [E,G,]2 z2 [G,,E,]2 | [G,,E,]4 [B,,G,]2 | %10
 [B,,G,]4 [B,,G,]2 | [A,,F,]6 | [A,,F,]4 [A,,F,]2 | [^A,,E,]4 [A,,E,]2 | [^A,,E,]4 [A,,F,]2 | %15
 [B,,F,]6- | [B,,F,]2 z2 [F,B,]2 | [=D,=C]4 [D,A,]2 | [=D,A,]4 (B,=C) | [=G,B,]6 | %20
 [=D,B,]2 z2 [D,B,]2 | [=D,F,]4 [D,F,]2 | [=D,F,]4 (E,F,) | [=G,,=G,]6- | [G,,G,]2 z4 | %25
 [B,,F,]4 [B,,F,][B,,F,] | [B,,F,]4 [B,,A,][B,,A,] | [E,G,]6 | [B,,G,]4 [E,G,]2 | %29
 [B,,G,]4 [B,,G,]2 | [B,,A,]4 [B,,F,]2 | [E,G,]4 |] %32
V:4
 x2 | x6 | x6 | x6 | x6 | x6 | x6 | x6 | x6 | x6 | x6 | x6 | x6 | x6 | x6 | x6 | x6 | x6 | %18
 x4 =D,2 | x6 | x6 | x6 | x4 =D,2 | x6 | x6 | x6 | x6 | x6 | x6 | x6 | x6 | x4 |] %32

